src/img/icons/sublime-text.svg

<svg xmlns="http://www.w3.org/2000/svg" xmlns:xlink="http://www.w3.org/1999/xlink" width="384pt" height="384pt" version="1.1" viewBox="0 0 384 384"> <defs> <filter id="alpha" width="100%" height="100%" x="0%" y="0%" filterUnits="objectBoundingBox"> <feColorMatrix in="SourceGraphic" type="matrix" values="0 0 0 0 1 0 0 0 0 1 0 0 0 0 1 0 0 0 1 0"/> </filter> <mask id="mask0"> <g filter="url(#alpha)"> <rect width="384" height="384" x="0" y="0" style="fill:rgb(0%,0%,0%);fill-opacity:0.301961"/> </g> </mask> <clipPath id="clip1"> <rect width="384" height="384" x="0" y="0"/> </clipPath> <g id="surface5" clip-path="url(#clip1)"> <path style="fill:rgb(100.000%,100.000%,100.000%)" d="M 66.796875 48.5625 C 56.695312 48.5625 48.5625 56.695312 48.5625 66.796875 L 48.5625 74.296875 C 48.5625 64.195312 56.695312 56.0625 66.796875 56.0625 L 317.195312 56.0625 C 327.296875 56.0625 335.433594 64.195312 335.433594 74.296875 L 335.433594 66.796875 C 335.433594 56.695312 327.296875 48.5625 317.195312 48.5625 Z M 66.796875 48.5625"/> </g> <mask id="mask1"> <g filter="url(#alpha)"> <rect width="384" height="384" x="0" y="0" style="fill:rgb(0%,0%,0%);fill-opacity:0.501961"/> </g> </mask> <clipPath id="clip2"> <rect width="384" height="384" x="0" y="0"/> </clipPath> <g id="surface8" clip-path="url(#clip2)"> <path style="fill:rgb(0%,0%,0%)" d="M 48.5625 287.195312 L 48.5625 317.195312 C 48.5625 327.296875 56.695312 335.433594 66.796875 335.433594 L 317.195312 335.433594 C 327.296875 335.433594 335.433594 327.296875 335.433594 317.195312 L 335.433594 287.195312 C 335.433594 297.300781 327.296875 305.433594 317.195312 305.433594 L 66.796875 305.433594 C 56.695312 305.433594 48.5625 297.300781 48.5625 287.195312 Z M 48.5625 287.195312"/> </g> <mask id="mask2"> <g filter="url(#alpha)"> <rect width="384" height="384" x="0" y="0" style="fill:rgb(0%,0%,0%);fill-opacity:0.301961"/> </g> </mask> <clipPath id="clip3"> <rect width="384" height="384" x="0" y="0"/> </clipPath> <g id="surface11" clip-path="url(#clip3)"> <path style="fill:rgb(100.000%,100.000%,100.000%)" d="M 42.800781 23.25 C 31.96875 23.25 23.25 31.96875 23.25 42.800781 L 23.25 50.300781 C 23.25 39.46875 31.96875 30.75 42.800781 30.75 L 341.195312 30.75 C 352.027344 30.75 360.746094 39.46875 360.746094 50.300781 L 360.746094 42.800781 C 360.746094 31.96875 352.027344 23.25 341.195312 23.25 Z M 42.800781 23.25"/> </g> <mask id="mask3"> <g filter="url(#alpha)"> <rect width="384" height="384" x="0" y="0" style="fill:rgb(0%,0%,0%);fill-opacity:0.301961"/> </g> </mask> <clipPath id="clip4"> <rect width="384" height="384" x="0" y="0"/> </clipPath> <g id="surface14" clip-path="url(#clip4)"> <path style="fill:rgb(0%,0%,0%)" d="M 23.25 333.695312 L 23.25 341.195312 C 23.25 352.027344 31.96875 363.746094 42.800781 363.746094 L 341.195312 363.746094 C 352.027344 363.746094 360.746094 352.027344 360.746094 341.195312 L 360.746094 333.695312 C 360.746094 344.527344 352.027344 353.246094 341.195312 353.246094 L 42.800781 353.246094 C 31.96875 353.246094 23.25 344.527344 23.25 333.695312 Z M 23.25 333.695312"/> </g> </defs> <g> <path style="fill:rgb(80.000%,80.000%,80.000%)" d="M 42.800781 23.25 L 341.195312 23.25 C 352.023438 23.25 360.746094 31.96875 360.746094 42.800781 L 360.746094 341.195312 C 360.746094 352.023438 352.023438 363.746094 341.195312 363.746094 L 42.800781 363.746094 C 31.96875 363.746094 23.25 352.023438 23.25 341.195312 L 23.25 42.800781 C 23.25 31.96875 31.96875 23.25 42.800781 23.25 Z M 42.800781 23.25"/> <path style="fill:rgb(20.000%,20.000%,20.000%)" d="M 66.8125 48.566406 L 317.207031 48.566406 C 327.28125 48.566406 335.445312 56.734375 335.445312 66.804688 L 335.445312 317.199219 C 335.445312 327.273438 327.28125 335.4375 317.207031 335.4375 L 66.8125 335.4375 C 56.742188 335.4375 48.574219 327.273438 48.574219 317.199219 L 48.574219 66.804688 C 48.574219 56.734375 56.742188 48.566406 66.8125 48.566406 Z M 66.8125 48.566406"/> <path style="fill:rgb(44.313%,29.411%,16.862%)" d="M 242.585938 149.253906 L 221.285156 150.105469 C 219.863281 143.859375 216.171875 139.101562 210.207031 135.835938 C 204.386719 132.566406 197.925781 131.007812 190.824219 131.148438 C 178.472656 131.433594 169.453125 135.195312 163.773438 142.4375 C 160.933594 146.128906 159.726562 150.746094 160.152344 156.285156 C 160.292969 159.265625 161.144531 161.820312 162.707031 163.953125 C 164.269531 166.082031 165.976562 167.785156 167.820312 169.0625 C 169.667969 170.339844 172.292969 171.40625 175.703125 172.257812 C 179.109375 173.109375 181.949219 173.675781 184.222656 173.960938 C 186.636719 174.246094 189.902344 174.601562 194.019531 175.027344 C 200.125 175.734375 205.453125 176.660156 209.996094 177.796875 C 214.683594 178.929688 219.652344 180.636719 224.90625 182.90625 C 230.300781 185.039062 234.703125 188.160156 238.113281 192.28125 C 241.664062 196.253906 244.148438 201.082031 245.566406 206.765625 C 246.277344 210.3125 246.632812 213.582031 246.632812 216.5625 C 246.632812 230.195312 241.023438 241.199219 229.804688 249.578125 C 218.585938 257.816406 205.734375 261.933594 191.25 261.933594 C 183.300781 261.933594 175.488281 260.511719 167.820312 257.671875 C 160.152344 254.691406 153.40625 250.074219 147.585938 243.828125 C 141.761719 237.4375 138.425781 230.050781 137.574219 221.675781 L 137.363281 217.628906 L 159.089844 217.203125 L 159.300781 220.398438 L 159.300781 219.546875 C 160.011719 226.078125 163.632812 231.261719 170.164062 235.09375 C 176.695312 238.789062 183.796875 240.632812 191.464844 240.632812 C 200.125 240.632812 207.867188 238.433594 214.683594 234.03125 C 221.496094 229.484375 224.90625 223.59375 224.90625 216.351562 C 224.90625 214.929688 224.691406 213.226562 224.265625 211.238281 C 223.699219 208.539062 222.421875 206.269531 220.433594 204.421875 C 218.445312 202.578125 215.675781 201.15625 212.125 200.160156 C 208.71875 199.167969 205.59375 198.457031 202.753906 198.035156 C 199.914062 197.464844 196.152344 196.96875 191.464844 196.542969 C 185.925781 195.972656 181.097656 195.335938 176.980469 194.625 C 173.003906 193.917969 168.53125 192.710938 163.5625 191.003906 C 158.734375 189.160156 154.683594 186.957031 151.417969 184.402344 C 148.152344 181.703125 145.3125 178.152344 142.898438 173.75 C 140.484375 169.207031 139.066406 163.953125 138.640625 157.988281 L 138.640625 158.199219 C 137.785156 147.550781 140.484375 138.109375 146.734375 129.871094 C 151.5625 123.621094 158.023438 118.792969 166.117188 115.386719 C 174.351562 111.835938 182.945312 110.0625 191.890625 110.0625 C 204.527344 110.0625 215.675781 113.398438 225.332031 120.074219 C 234.988281 126.746094 240.738281 136.472656 242.585938 149.253906 Z M 242.585938 149.253906"/> <path style="fill:rgb(99.215%,49.019%,0%)" d="M 242.585938 141.753906 L 221.285156 142.605469 C 219.863281 136.359375 216.171875 131.601562 210.207031 128.335938 C 204.386719 125.070312 197.925781 123.507812 190.824219 123.648438 C 178.472656 123.933594 169.453125 127.695312 163.773438 134.9375 C 160.933594 138.628906 159.726562 143.246094 160.152344 148.785156 C 160.292969 151.765625 161.144531 154.320312 162.707031 156.453125 C 164.269531 158.582031 165.976562 160.285156 167.820312 161.5625 C 169.667969 162.839844 172.292969 163.90625 175.703125 164.757812 C 179.109375 165.609375 181.949219 166.179688 184.222656 166.460938 C 186.636719 166.746094 189.902344 167.101562 194.019531 167.527344 C 200.125 168.238281 205.453125 169.160156 209.996094 170.296875 C 214.683594 171.429688 219.652344 173.136719 224.90625 175.40625 C 230.300781 177.539062 234.703125 180.660156 238.113281 184.78125 C 241.664062 188.757812 244.148438 193.585938 245.566406 199.265625 C 246.277344 202.8125 246.632812 206.082031 246.632812 209.0625 C 246.632812 222.695312 241.023438 233.699219 229.804688 242.078125 C 218.585938 250.316406 205.734375 254.433594 191.25 254.433594 C 183.300781 254.433594 175.488281 253.011719 167.820312 250.171875 C 160.152344 247.191406 153.40625 242.574219 147.585938 236.328125 C 141.761719 229.9375 138.425781 222.554688 137.574219 214.175781 L 137.363281 210.128906 L 159.089844 209.703125 L 159.300781 212.898438 L 159.300781 212.046875 C 160.011719 218.578125 163.632812 223.761719 170.164062 227.59375 C 176.695312 231.289062 183.796875 233.132812 191.464844 233.132812 C 200.125 233.132812 207.867188 230.933594 214.683594 226.53125 C 221.496094 221.984375 224.90625 216.09375 224.90625 208.851562 C 224.90625 207.429688 224.691406 205.726562 224.265625 203.738281 C 223.699219 201.039062 222.421875 198.769531 220.433594 196.921875 C 218.445312 195.078125 215.675781 193.65625 212.125 192.664062 C 208.71875 191.667969 205.59375 190.957031 202.753906 190.535156 C 199.914062 189.964844 196.152344 189.46875 191.464844 189.042969 C 185.925781 188.472656 181.097656 187.835938 176.980469 187.125 C 173.003906 186.417969 168.53125 185.210938 163.5625 183.503906 C 158.734375 181.660156 154.683594 179.457031 151.417969 176.902344 C 148.152344 174.203125 145.3125 170.652344 142.898438 166.25 C 140.484375 161.707031 139.066406 156.453125 138.640625 150.488281 L 138.640625 150.699219 C 137.785156 140.050781 140.484375 130.609375 146.734375 122.371094 C 151.5625 116.125 158.023438 111.296875 166.117188 107.886719 C 174.351562 104.335938 182.945312 102.5625 191.890625 102.5625 C 204.527344 102.5625 215.675781 105.898438 225.332031 112.574219 C 234.988281 119.246094 240.738281 128.976562 242.585938 141.753906 Z M 242.585938 141.753906"/> <use mask="url(#mask0)" xlink:href="#surface5"/> <use mask="url(#mask1)" xlink:href="#surface8"/> <use mask="url(#mask2)" xlink:href="#surface11"/> <use mask="url(#mask3)" xlink:href="#surface14"/> </g> </svg>

<svg width="512" height="512" version="1.1" viewBox="0 0 384 384" xmlns="http://www.w3.org/2000/svg" xmlns:xlink="http://www.w3.org/1999/xlink"><defs><filter id="alpha" x="0" y="0" width="1" height="1"><feColorMatrix in="SourceGraphic" values="0 0 0 0 1 0 0 0 0 1 0 0 0 0 1 0 0 0 1 0"/></filter><mask id="b"><g filter="url(#alpha)"><rect width="384" height="384" fill-opacity=".50196"/></g></mask><clipPath id="c"><rect width="384" height="384"/></clipPath><g id="a" clip-path="url(#c)"><path d="m48.562 287.2v30c0 10.102 8.1328 18.238 18.234 18.238h250.4c10.102 0 18.238-8.1367 18.238-18.238v-30c0 10.105-8.1367 18.238-18.238 18.238h-250.4c-10.102 0-18.234-8.1328-18.234-18.238z"/></g></defs><path d="m42.801 23.25c-12.844 0-23.301 10.231-23.301 22.799v291.96c0 6.2822 2.4907 12.501 6.5703 17.341 4.0796 4.8395 9.9617 8.3932 16.73 8.3932h298.39c6.7675 0 12.649-3.554 16.729-8.3932 4.08-4.8393 6.5723-11.058 6.5723-17.341v-291.96c0-12.569-10.46-22.799-23.301-22.799zm0 7.3383h298.39c8.815 0 15.801 6.8313 15.801 15.46v291.96c0 4.3121-1.869 9.1256-4.8574 12.67-2.9884 3.5445-6.8824 5.7254-10.943 5.7254h-298.39c-4.0632 0-7.9574-2.1811-10.945-5.7254-2.9879-3.5444-4.8555-8.3576-4.8555-12.67v-291.96c0-8.6296 6.9809-15.46 15.801-15.46z" color="#000000" color-rendering="auto" dominant-baseline="auto" image-rendering="auto" opacity=".2" shape-rendering="auto" solid-color="#000000" style="font-feature-settings:normal;font-variant-alternates:normal;font-variant-caps:normal;font-variant-ligatures:normal;font-variant-numeric:normal;font-variant-position:normal;isolation:auto;mix-blend-mode:normal;shape-padding:0;text-decoration-color:#000000;text-decoration-line:none;text-decoration-style:solid;text-indent:0;text-orientation:mixed;text-transform:none;white-space:normal"/><path d="m42.801 23.25h298.39c10.828 0 19.551 8.7188 19.551 19.551v298.39c0 10.828-8.7226 22.551-19.551 22.551h-298.39c-10.832 0-19.551-11.723-19.551-22.551v-298.39c0-10.832 8.7188-19.551 19.551-19.551z" fill="#fff"/><path d="m66.812 48.566h250.39c10.074 0 18.238 8.168 18.238 18.238v250.39c0 10.074-8.1641 18.238-18.238 18.238h-250.39c-10.07 0-18.238-8.1641-18.238-18.238v-250.39c0-10.07 8.168-18.238 18.238-18.238z" fill="#333"/><path d="m242.59 149.25-21.301 0.85156c-1.4219-6.2461-5.1133-11.004-11.078-14.27-5.8203-3.2695-12.281-4.8281-19.383-4.6875-12.352 0.28515-21.371 4.0469-27.051 11.289-2.8398 3.6914-4.0469 8.3086-3.6211 13.848 0.14063 2.9805 0.99219 5.5352 2.5547 7.668 1.5625 2.1289 3.2695 3.832 5.1133 5.1094 1.8477 1.2773 4.4727 2.3438 7.8828 3.1953 3.4062 0.85156 6.2461 1.418 8.5195 1.7031 2.4141 0.28515 5.6797 0.64062 9.7969 1.0664 6.1055 0.70703 11.434 1.6328 15.977 2.7695 4.6875 1.1328 9.6562 2.8398 14.91 5.1094 5.3945 2.1328 9.7969 5.2539 13.207 9.375 3.5508 3.9727 6.0352 8.8008 7.4531 14.484 0.71093 3.5469 1.0664 6.8164 1.0664 9.7969 0 13.633-5.6094 24.637-16.828 33.016-11.219 8.2383-24.07 12.355-38.555 12.355-7.9492 0-15.762-1.4219-23.43-4.2617-7.668-2.9805-14.414-7.5976-20.234-13.844-5.8242-6.3906-9.1602-13.777-10.012-22.152l-0.21094-4.0469 21.727-0.42579 0.21094 3.1953v-0.85157c0.71094 6.5312 4.332 11.715 10.863 15.547 6.5312 3.6953 13.633 5.5391 21.301 5.5391 8.6602 0 16.402-2.1992 23.219-6.6016 6.8125-4.5469 10.223-10.438 10.223-17.68 0-1.4219-0.21484-3.125-0.64063-5.1133-0.5664-2.6992-1.8438-4.9688-3.832-6.8164-1.9883-1.8438-4.7578-3.2656-8.3086-4.2617-3.4062-0.99219-6.5312-1.7031-9.3711-2.125-2.8398-0.57032-6.6016-1.0664-11.289-1.4922-5.5391-0.57031-10.367-1.207-14.484-1.918-3.9766-0.70703-8.4492-1.9141-13.418-3.6211-4.8281-1.8438-8.8789-4.0469-12.145-6.6016-3.2656-2.6992-6.1055-6.25-8.5195-10.652-2.4141-4.543-3.832-9.7969-4.2578-15.762v0.21094c-0.85546-10.648 1.8438-20.09 8.0938-28.328 4.8281-6.25 11.289-11.078 19.383-14.484 8.2344-3.5508 16.828-5.3242 25.773-5.3242 12.637 0 23.785 3.3359 33.441 10.012 9.6562 6.6719 15.406 16.398 17.254 29.18z" fill="#704a28"/><path d="m242.59 141.75-21.301 0.85156c-1.4219-6.2461-5.1133-11.004-11.078-14.27-5.8203-3.2656-12.281-4.8281-19.383-4.6875-12.352 0.28515-21.371 4.0469-27.051 11.289-2.8398 3.6914-4.0469 8.3086-3.6211 13.848 0.14063 2.9805 0.99219 5.5352 2.5547 7.668 1.5625 2.1289 3.2695 3.832 5.1133 5.1094 1.8477 1.2773 4.4727 2.3438 7.8828 3.1953 3.4062 0.85156 6.2461 1.4219 8.5195 1.7031 2.4141 0.28515 5.6797 0.64062 9.7969 1.0664 6.1055 0.71094 11.434 1.6328 15.977 2.7695 4.6875 1.1328 9.6562 2.8398 14.91 5.1094 5.3945 2.1328 9.7969 5.2539 13.207 9.375 3.5508 3.9766 6.0352 8.8047 7.4531 14.484 0.71093 3.5469 1.0664 6.8164 1.0664 9.7969 0 13.633-5.6094 24.637-16.828 33.016-11.219 8.2383-24.07 12.355-38.555 12.355-7.9492 0-15.762-1.4219-23.43-4.2617-7.668-2.9805-14.414-7.5976-20.234-13.844-5.8242-6.3906-9.1602-13.773-10.012-22.152l-0.21094-4.0469 21.727-0.42579 0.21094 3.1953v-0.85157c0.71094 6.5312 4.332 11.715 10.863 15.547 6.5312 3.6953 13.633 5.5391 21.301 5.5391 8.6602 0 16.402-2.1992 23.219-6.6016 6.8125-4.5469 10.223-10.438 10.223-17.68 0-1.4219-0.21484-3.125-0.64063-5.1133-0.5664-2.6992-1.8438-4.9688-3.832-6.8164-1.9883-1.8438-4.7578-3.2656-8.3086-4.2578-3.4062-0.99609-6.5312-1.707-9.3711-2.1289-2.8398-0.57032-6.6016-1.0664-11.289-1.4922-5.5391-0.57031-10.367-1.207-14.484-1.918-3.9766-0.70703-8.4492-1.9141-13.418-3.6211-4.8281-1.8438-8.8789-4.0469-12.145-6.6016-3.2656-2.6992-6.1055-6.25-8.5195-10.652-2.4141-4.543-3.832-9.7969-4.2578-15.762v0.21094c-0.85546-10.648 1.8438-20.09 8.0938-28.328 4.8281-6.2461 11.289-11.074 19.383-14.484 8.2344-3.5508 16.828-5.3242 25.773-5.3242 12.637 0 23.785 3.3359 33.441 10.012 9.6562 6.6719 15.406 16.402 17.254 29.18z" fill="#fd7d00"/><use width="100%" height="100%" mask="url(#b)" xlink:href="#a"/><path d="m23.251 333.7v7.5c0 10.828 8.7192 22.551 19.551 22.551h298.39c10.828 0 19.551-11.723 19.551-22.551v-7.5c0 10.828-8.7232 22.551-19.551 22.551h-298.39c-10.832 0-19.551-11.723-19.551-22.551z" opacity=".3"/><path d="m42.803 23.251c-10.832 0-19.551 8.7192-19.551 19.551v7.5c0-10.832 8.7192-19.551 19.551-19.551h298.39c10.828 0 19.551 8.7192 19.551 19.551v-7.5c0-10.832-8.7232-19.551-19.551-19.551z" opacity=".1"/></svg>
